X: 20197
T: Joe And Adele
R: reel
M: 4/4
K: Amajor
A2cA BAcB|AcBA BEEG|A2cA BAcA|faed cAAG:|
A2ae caec|aece dBB2|A2ae caec|dcBd cAAE|
A2ae caec|aece dBB2|ABcA BcdB|eage a4||

